v/0.4.11/design-resources/icons/wf_icons/construction-cone.svg

<?xml version="1.0" encoding="utf-8"?>
<!-- Generated by IcoMoon.io -->
<!DOCTYPE svg PUBLIC "-//W3C//DTD SVG 1.1//EN" "http://www.w3.org/Graphics/SVG/1.1/DTD/svg11.dtd">
<svg version="1.1" xmlns="http://www.w3.org/2000/svg" xmlns:xlink="http://www.w3.org/1999/xlink" width="512" height="512" viewBox="0 0 512 512">
<g>
</g>
	<path d="M448 448l-134.208-417.535c-5.386-16.756-20.592-30.465-33.792-30.465s-34.8 0-48 0-28.407 13.709-33.792 30.465l-134.208 417.535h-64v64h512v-64h-64zM210.755 96h90.489l20.572 64h-131.632l20.571-64zM169.613 224h172.775l20.571 64h-213.918l20.572-64zM107.898 416l20.571-64h255.061l20.571 64h-296.203z" fill="#595959" />
</svg>

<svg xmlns="http://www.w3.org/2000/svg" width="512" height="512" viewBox="0 0 512 512"><path stroke="#449FDB" d="M0 0"/><path d="M448 448L313.792 30.465C308.406 13.71 293.2 0 280 0s-34.8 0-48 0-28.407 13.71-33.792 30.465L64 448H0v64h512v-64h-64zM210.755 96h90.49l20.57 64h-131.63l20.57-64zm-41.142 128h172.775l20.57 64H149.042l20.573-64zm-61.715 192l20.57-64H383.53l20.57 64H107.9z" fill="#595959"/></svg>
